X: 14
T: No_22_Toto_Dance_Song_(b).krn
N: Derived from No_22_Toto_Dance_Song_(b).krn
%%abc-version 2.0
%%abcx-abcm2ps-target-version 5.9.1 (29 Sep 2008)
%%abc-creator hum2abc beta
%%abcx-conversion-date 2019/03/15 08:35:00
%%humdrum-veritas 2239698878
%%humdrum-veritas-data 1445195719
%%linebreak <none>
%%barnumbers 0
L: 1/16
M: 2/4
K: Bb clef=bass
[K:clef=bass][M:2/4]B,2CB,C4 | 
(3C2B,2B,2 B,2 z2 | 
D2DCC4 | 
CB,B,B, B,2 z2 | 
C2CB,C4 | 
CB,B,B, B,2 z2 | 
B,2C2C4 | 
[M:3/4]CB,(G,F,) F,3G, G, z B,2 | 
C3D CB,CB, B,2 z2 | 
[M:2/4]D2DCC4 | 
CB,B,B, B,2 z2 | 
D2CB,C4 | 
CB,B,B, B,2 z2 | 
B,2C2C4 | 
CB,(G,F,) F,2 z2 | 
C2CD C3D | 
DC(DC) B,2 z2 | 
D2DCC4 | 
CB,B,B, B,2 z2 | 
B,2C2C4 | 
CB,B,B, B,2 z2 | 
B,2C2C4 | 
CB,(G,F,) F,2 z2 | 
C2CD C3D | 
DCDC B,2 z2 |]  



